images/external_link.svg

<?xml version="1.0" encoding="UTF-8" standalone="no"?>
<svg width="12px" height="12px" viewBox="0 0 14 14" version="1.1" xmlns="http://www.w3.org/2000/svg" xmlns:xlink="http://www.w3.org/1999/xlink" xmlns:sketch="http://www.bohemiancoding.com/sketch/ns">
    <!-- Generator: Sketch 3.5.2 (25235) - http://www.bohemiancoding.com/sketch -->
    <title>external_link</title>
    <desc>Created with Sketch.</desc>
    <defs></defs>
    <g id="Page-1" stroke="none" stroke-width="1" fill="none" fill-rule="evenodd" sketch:type="MSPage">
        <g id="external_link" sketch:type="MSLayerGroup" fill="#ccc">
            <path d="M10,8 C9.447,8 9,8.448 9,9 L9,12 L2,12 L2,5 L5,5 C5.553,5 6,4.552 6,4 C6,3.448 5.553,3 5,3 L1,3 C0.447,3 0,3.448 0,4 L0,13 C0,13.552 0.447,14 1,14 L10,14 C10.553,14 11,13.552 11,13 L11,9 C11,8.448 10.553,8 10,8 L10,8 Z" id="Shape" sketch:type="MSShapeGroup"></path>
            <path d="M13,0 L8,0 C7.447,0 7,0.448 7,1 C7,1.552 7.447,2 8,2 L10.586,2 L4.293,8.293 C3.902,8.684 3.902,9.316 4.293,9.707 C4.488,9.902 4.744,10 5,10 C5.256,10 5.512,9.902 5.707,9.707 L12,3.414 L12,6 C12,6.552 12.447,7 13,7 C13.553,7 14,6.552 14,6 L14,1 C14,0.448 13.553,0 13,0 L13,0 Z" id="Shape" sketch:type="MSShapeGroup"></path>
        </g>
    </g>
</svg>

<svg width="12" height="12" viewBox="0 0 14 14" xmlns="http://www.w3.org/2000/svg"><g id="Page-1" stroke="none" stroke-width="1" fill="none" fill-rule="evenodd"><g id="external_link" fill="#ccc"><path d="M10 8a1 1 0 00-1 1v3H2V5h3a1 1 0 100-2H1a1 1 0 00-1 1v9a1 1 0 001 1h9a1 1 0 001-1V9a1 1 0 00-1-1z" id="Shape"/><path d="M13 0H8a1 1 0 100 2h2.586L4.293 8.293a.999.999 0 101.414 1.414L12 3.414V6a1 1 0 102 0V1a1 1 0 00-1-1z" id="Shape"/></g></g></svg>
